;FLAVOR:Marlin
;TIME:10182
;Filament used: 5.94705m
;Layer height: 0.2
;MINX:78.959
;MINY:79.838
;MINZ:0.2
;MAXX:156.041
;MAXY:155.162
;MAXZ:26.4
;Generated with Cura_SteamEngine 4.6.1
M140 S60
M105
M190 S60
M104 S200
M105
M109 S200
M82 ;absolute extrusion mode
; Ender 3 Custom Start G-code
G92 E0 ; Reset Extruder
G28 ; Home all axes
G1 Z2.0 F3000 ; Move Z Axis up little to prevent scratching of Heat Bed
G1 X0.1 Y20 Z0.3 F5000.0 ; Move to start position
G1 X0.1 Y200.0 Z0.3 F1500.0 E15 ; Draw the first line
G1 X0.4 Y200.0 Z0.3 F5000.0 ; Move to side a little
G1 X0.4 Y20 Z0.3 F1500.0 E30 ; Draw the second line
G92 E0 ; Reset Extruder
G1 Z2.0 F3000 ; Move Z Axis up little to prevent scratching of Heat Bed
G1 X5 Y20 Z0.3 F5000.0 ; Move over to prevent blob squish
G92 E0
G92 E0
G1 F1500 E-6.5
;LAYER_COUNT:132
;LAYER:0
M107
G0 F6000 X143.977 Y80.648 Z0.2
;TYPE:SKIRT
G1 F1500 E0
G1 F1200 X144.953 Y80.709 E0.03253
G1 X145.224 Y80.739 E0.04159
G1 X146.117 Y80.878 E0.07165
G1 X147.389 Y81.221 E0.11547
G1 X147.624 Y81.301 E0.12373
G1 X148.465 Y81.63 E0.15376
G1 X149.602 Y82.221 E0.19638
G1 X149.826 Y82.356 E0.20508
G1 X150.578 Y82.856 E0.23512
G1 X151.608 Y83.718 E0.27979
G1 X151.811 Y83.912 E0.28913
G1 X152.436 Y84.564 E0.31917
G1 X153 Y85.269 E0.3492
G1 X153.376 Y85.82 E0.37138
G1 X153.522 Y86.05 E0.38045
G1 X153.971 Y86.833 E0.41047
G1 X154.35 Y87.653 E0.44051
G1 X154.519 Y88.095 E0.45625
G1 X154.608 Y88.345 E0.46508
G1 X154.873 Y89.208 E0.4951
G1 X155.122 Y90.517 E0.53942
G1 X155.151 Y90.752 E0.5473
G1 X155.226 Y91.818 E0.58284
G1 X155.241 Y92.724 E0.61298
G1 X155.241 Y114.216 E1.3278
G1 X155.211 Y116.335 E1.39829
G1 X155.203 Y117.603 E1.44046
G1 X155.212 Y118.975 E1.4861
G1 X155.241 Y120.981 E1.55282
G1 X155.241 Y142.359 E2.26386
G1 X155.231 Y143.092 E2.28824
G1 X155.178 Y143.999 E2.31846
G1 X155.151 Y144.261 E2.32722
G1 X155.019 Y145.154 E2.35724
G1 X154.808 Y146.032 E2.38728
G1 X154.662 Y146.498 E2.40352
G1 X154.576 Y146.751 E2.41241
G1 X154.248 Y147.592 E2.44243
G1 X153.847 Y148.401 E2.47246
G1 X153.567 Y148.877 E2.49083
G1 X153.42 Y149.112 E2.50005
G1 X152.907 Y149.856 E2.53011
G1 X152.065 Y150.834 E2.57303
G1 X151.889 Y151.014 E2.5814
G1 X151.23 Y151.631 E2.61143
G1 X150.518 Y152.188 E2.6415
G1 X150.04 Y152.509 E2.66065
G1 X149.815 Y152.651 E2.6695
G1 X149.031 Y153.099 E2.69953
G1 X147.883 Y153.601 E2.7412
G1 X147.624 Y153.696 E2.75038
G1 X146.764 Y153.969 E2.78039
G1 X145.882 Y154.165 E2.81044
G1 X145.354 Y154.244 E2.8282
G1 X145.134 Y154.271 E2.83557
G1 X144.065 Y154.346 E2.87121
G1 X143.007 Y154.362 E2.90641
G1 X91.825 Y154.362 E4.60873
G1 X91.273 Y154.354 E4.62709
G1 X90.64 Y154.325 E4.64816
G1 X90.184 Y154.29 E4.66337
G1 X89.288 Y154.181 E4.69339
G1 X88.405 Y153.993 E4.72342
G1 X87.795 Y153.815 E4.74456
G1 X87.535 Y153.73 E4.75365
G1 X86.69 Y153.412 E4.78368
G1 X85.877 Y153.02 E4.8137
G1 X85.34 Y152.71 E4.83433
G1 X85.112 Y152.569 E4.84324
G1 X84.366 Y152.061 E4.87326
G1 X83.667 Y151.488 E4.90332
G1 X83.304 Y151.146 E4.91991
G1 X83.122 Y150.966 E4.92843
G1 X82.509 Y150.303 E4.95846
G1 X81.957 Y149.589 E4.98847
G1 X81.696 Y149.2 E5.00406
G1 X81.548 Y148.968 E5.01321
G1 X81.096 Y148.186 E5.04325
G1 X80.716 Y147.367 E5.07328
G1 X80.533 Y146.891 E5.09024
G1 X80.444 Y146.64 E5.0991
G1 X80.181 Y145.776 E5.12914
G1 X79.994 Y144.892 E5.15919
G1 X79.927 Y144.413 E5.17528
G1 X79.899 Y144.173 E5.18331
G1 X79.831 Y143.144 E5.21761
G1 X79.818 Y142.193 E5.24925
G1 X79.818 Y120.781 E5.96141
G1 X79.83 Y119.942 E5.98932
G1 X79.83 Y117.323 E6.07643
G1 X79.774 Y115.257 E6.14517
G1 X79.759 Y114.108 E6.18339
G1 X79.759 Y92.577 E6.89951
G1 X79.769 Y91.885 E6.92253
G1 X79.826 Y90.95 E6.95369
G1 X79.85 Y90.725 E6.96121
G1 X79.985 Y89.832 E6.99125
G1 X80.276 Y88.703 E7.03003
G1 X80.345 Y88.487 E7.03757
G1 X80.657 Y87.64 E7.06759
G1 X81.164 Y86.603 E7.10598
G1 X81.326 Y86.314 E7.117
G1 X81.802 Y85.547 E7.14703
G1 X82.344 Y84.825 E7.17706
G1 X82.952 Y84.149 E7.2073
G1 X83.134 Y83.964 E7.21593
G1 X83.795 Y83.349 E7.24596
G1 X84.878 Y82.544 E7.29084
G1 X85.106 Y82.397 E7.29986
G1 X85.886 Y81.942 E7.32989
G1 X86.703 Y81.558 E7.35992
G1 X87.224 Y81.356 E7.37851
G1 X87.475 Y81.267 E7.38736
G1 X88.339 Y81.004 E7.4174
G1 X89.619 Y80.76 E7.46074
G1 X89.867 Y80.729 E7.46905
G1 X90.973 Y80.651 E7.50593
G1 X91.901 Y80.638 E7.5368
G1 X143.28 Y80.638 E9.24567
G1 X143.977 Y80.648 E9.26886
G0 F6000 X143.983 Y80.248
G1 F1200 X144.997 Y80.311 E9.30265
G1 X145.268 Y80.341 E9.31172
G1 X146.178 Y80.482 E9.34234
G1 X147.072 Y80.702 E9.37297
G1 X147.518 Y80.843 E9.38852
G1 X147.753 Y80.923 E9.39678
G1 X148.611 Y81.257 E9.4274
G1 X149.809 Y81.878 E9.47228
G1 X150.033 Y82.013 E9.48098
G1 X150.8 Y82.522 E9.5116
G1 X151.52 Y83.096 E9.54223
G1 X151.885 Y83.429 E9.55866
G1 X152.088 Y83.623 E9.568
G1 X152.725 Y84.287 E9.5986
G1 X153.302 Y85.004 E9.62921
G1 X153.713 Y85.605 E9.65343
G1 X153.859 Y85.835 E9.66249
G1 X154.318 Y86.633 E9.69311
G1 X154.707 Y87.468 E9.72375
G1 X154.896 Y87.961 E9.74131
G1 X154.985 Y88.211 E9.75013
G1 X155.256 Y89.091 E9.78076
G1 X155.449 Y89.991 E9.81137
G1 X155.519 Y90.468 E9.82741
G1 X155.548 Y90.703 E9.83528
G1 X155.626 Y91.81 E9.87219
G1 X155.641 Y92.724 E9.9026
G1 X155.641 Y114.222 E10.61762
G1 X155.611 Y116.341 E10.68811
G1 X155.603 Y117.603 E10.73009
G1 X155.612 Y118.969 E10.77552
G1 X155.641 Y120.981 E10.84245
G1 X155.641 Y142.365 E11.55368
G1 X155.631 Y143.098 E11.57806
G1 X155.576 Y144.04 E11.60945
G1 X155.549 Y144.302 E11.61821
G1 X155.415 Y145.212 E11.6488
G1 X155.203 Y146.108 E11.67942
G1 X155.041 Y146.626 E11.69748
G1 X154.955 Y146.879 E11.70636
G1 X154.621 Y147.737 E11.73699
G1 X154.214 Y148.563 E11.76761
G1 X153.906 Y149.089 E11.78789
G1 X153.759 Y149.324 E11.79711
G1 X153.237 Y150.083 E11.82774
G1 X152.351 Y151.114 E11.87296
G1 X152.175 Y151.294 E11.88133
G1 X151.503 Y151.923 E11.91195
G1 X150.78 Y152.492 E11.94255
G1 X150.253 Y152.847 E11.96368
G1 X150.028 Y152.989 E11.97253
G1 X149.229 Y153.446 E12.00314
G1 X148.021 Y153.977 E12.04703
G1 X147.762 Y154.072 E12.05621
G1 X146.885 Y154.351 E12.08682
G1 X145.987 Y154.553 E12.11743
G1 X145.403 Y154.641 E12.13708
G1 X145.183 Y154.668 E12.14445
G1 X144.072 Y154.745 E12.18149
G1 X143.007 Y154.762 E12.21691
G1 X91.819 Y154.762 E13.91943
G1 X91.267 Y154.754 E13.9378
G1 X90.61 Y154.724 E13.95967
G1 X90.154 Y154.689 E13.97488
G1 X89.24 Y154.579 E14.0055
G1 X88.339 Y154.39 E14.03612
G1 X87.671 Y154.195 E14.05927
G1 X87.411 Y154.11 E14.06836
G1 X86.549 Y153.786 E14.09899
G1 X85.719 Y153.389 E14.12959
G1 X85.13 Y153.05 E14.1522
G1 X84.902 Y152.909 E14.16111
G1 X84.14 Y152.392 E14.19174
G1 X83.427 Y151.81 E14.22235
G1 X83.023 Y151.431 E14.24078
G1 X82.841 Y151.251 E14.24929
G1 X82.215 Y150.575 E14.27993
G1 X81.65 Y149.848 E14.31056
G1 X81.359 Y149.415 E14.32791
G1 X81.211 Y149.183 E14.33706
G1 X80.75 Y148.386 E14.36769
G1 X80.359 Y147.552 E14.39832
G1 X80.156 Y147.024 E14.41714
G1 X80.067 Y146.773 E14.42599
G1 X79.798 Y145.893 E14.4566
G1 X79.605 Y144.993 E14.48721
G1 X79.529 Y144.459 E14.50515
G1 X79.501 Y144.219 E14.51319
G1 X79.431 Y143.15 E14.54882
G1 X79.418 Y142.193 E14.58066
G1 X79.418 Y120.775 E15.29302
G1 X79.43 Y119.936 E15.32093
G1 X79.43 Y117.334 E15.40747
G1 X79.374 Y115.262 E15.47641
G1 X79.359 Y114.108 E15.5148
G1 X79.359 Y92.571 E16.23112
G1 X79.369 Y91.879 E16.25414
G1 X79.428 Y90.908 E16.28649
G1 X79.452 Y90.683 E16.29402
G1 X79.589 Y89.772 E16.32466
G1 X79.895 Y88.581 E16.36556
G1 X79.964 Y88.365 E16.3731
G1 X80.282 Y87.501 E16.40372
G1 X80.815 Y86.408 E16.44417
G1 X80.977 Y86.119 E16.45519
G1 X81.461 Y85.336 E16.4858
G1 X82.012 Y84.598 E16.51644
G1 X82.667 Y83.868 E16.54906
G1 X82.849 Y83.683 E16.55769
G1 X83.522 Y83.056 E16.58828
G1 X84.248 Y82.489 E16.61892
G1 X84.661 Y82.208 E16.63554
G1 X84.889 Y82.061 E16.64456
G1 X85.684 Y81.596 E16.67519
G1 X86.516 Y81.202 E16.70581
G1 X87.091 Y80.979 E16.72632
G1 X87.342 Y80.89 E16.73518
G1 X88.222 Y80.621 E16.76579
G1 X89.569 Y80.363 E16.8114
G1 X89.817 Y80.332 E16.81971
G1 X90.967 Y80.251 E16.85806
G1 X91.901 Y80.238 E16.88913
G1 X143.286 Y80.238 E18.5982
G1 X143.983 Y80.248 E18.62138
G0 F6000 X143.989 Y79.848
G1 F1200 X145.041 Y79.914 E18.65644
G1 X145.312 Y79.944 E18.66551
G1 X146.239 Y80.087 E18.69671
G1 X147.151 Y80.308 E18.72792
G1 X147.647 Y80.464 E18.74521
G1 X147.882 Y80.544 E18.75347
G1 X148.756 Y80.884 E18.78466
G1 X149.598 Y81.297 E18.81585
G1 X150.015 Y81.536 E18.83184
G1 X150.239 Y81.671 E18.84054
G1 X151.021 Y82.189 E18.87173
G1 X151.756 Y82.771 E18.90292
G1 X152.161 Y83.14 E18.92114
G1 X152.364 Y83.334 E18.93048
G1 X153.014 Y84.01 E18.96167
G1 X153.604 Y84.739 E18.99286
G1 X154.051 Y85.391 E19.01916
G1 X154.197 Y85.621 E19.02822
G1 X154.665 Y86.433 E19.05939
G1 X155.063 Y87.283 E19.09061
G1 X155.273 Y87.827 E19.11
G1 X155.362 Y88.077 E19.11883
G1 X155.638 Y88.973 E19.15001
G1 X155.838 Y89.889 E19.18119
G1 X155.916 Y90.419 E19.19901
G1 X155.945 Y90.654 E19.20689
G1 X156.026 Y91.803 E19.2452
G1 X156.041 Y92.723 E19.2758
G1 X156.041 Y114.228 E19.99106
G1 X156.011 Y116.347 E20.06155
G1 X156.003 Y117.604 E20.10335
G1 X156.012 Y118.963 E20.14856
G1 X156.041 Y120.98 E20.21565
G1 X156.041 Y142.37 E20.92708
G1 X156.031 Y143.103 E20.95146
G1 X155.974 Y144.081 E20.98405
G1 X155.947 Y144.343 E20.99281
G1 X155.811 Y145.271 E21.024
G1 X155.597 Y146.184 E21.05519
G1 X155.42 Y146.755 E21.07508
G1 X155.334 Y147.008 E21.08396
G1 X154.994 Y147.882 E21.11516
G1 X154.582 Y148.725 E21.14636
G1 X154.245 Y149.302 E21.16859
G1 X154.098 Y149.537 E21.17781
G1 X153.567 Y150.31 E21.209
G1 X152.972 Y151.035 E21.24019
G1 X152.637 Y151.393 E21.2565
G1 X152.461 Y151.573 E21.26487
G1 X151.777 Y152.215 E21.29607
G1 X151.042 Y152.797 E21.32726
G1 X150.467 Y153.185 E21.35033
G1 X150.242 Y153.327 E21.35918
G1 X149.428 Y153.794 E21.39039
G1 X148.159 Y154.352 E21.4365
G1 X147.9 Y154.447 E21.44567
G1 X147.006 Y154.732 E21.47688
G1 X146.092 Y154.94 E21.50806
G1 X145.452 Y155.038 E21.52959
G1 X145.232 Y155.065 E21.53697
G1 X144.078 Y155.145 E21.57544
G1 X143.007 Y155.162 E21.61107
G1 X91.814 Y155.162 E23.31375
G1 X91.262 Y155.154 E23.33211
G1 X90.579 Y155.123 E23.35485
G1 X90.123 Y155.088 E23.37007
G1 X89.192 Y154.976 E23.40125
G1 X88.274 Y154.786 E23.43243
G1 X87.547 Y154.575 E23.45761
G1 X87.287 Y154.49 E23.46671
G1 X86.409 Y154.161 E23.49789
G1 X85.562 Y153.758 E23.52909
G1 X84.919 Y153.391 E23.55372
G1 X84.691 Y153.25 E23.56263
G1 X83.915 Y152.723 E23.59383
G1 X83.187 Y152.132 E23.62502
G1 X82.742 Y151.715 E23.6453
G1 X82.56 Y151.535 E23.65382
G1 X81.922 Y150.848 E23.685
G1 X81.345 Y150.109 E23.71618
G1 X81.021 Y149.63 E23.73542
G1 X80.873 Y149.398 E23.74457
G1 X80.403 Y148.587 E23.77575
G1 X80.004 Y147.738 E23.80695
G1 X79.779 Y147.158 E23.82764
G1 X79.69 Y146.907 E23.8365
G1 X79.415 Y146.011 E23.86767
G1 X79.217 Y145.094 E23.89887
G1 X79.132 Y144.506 E23.91863
G1 X79.104 Y144.266 E23.92667
G1 X79.031 Y143.156 E23.96367
G1 X79.018 Y142.194 E23.99567
G1 X79.018 Y120.77 E24.70823
G1 X79.03 Y119.931 E24.73614
G1 X79.03 Y117.345 E24.82215
G1 X78.974 Y115.268 E24.89126
G1 X78.959 Y114.109 E24.92981
G1 X78.959 Y92.565 E25.64637
G1 X78.969 Y91.873 E25.66938
G1 X79.03 Y90.865 E25.70297
G1 X79.054 Y90.64 E25.7105
G1 X79.193 Y89.713 E25.74168
G1 X79.514 Y88.46 E25.7847
G1 X79.583 Y88.244 E25.79224
G1 X79.906 Y87.363 E25.82345
G1 X80.466 Y86.212 E25.86602
G1 X80.628 Y85.923 E25.87704
G1 X81.121 Y85.126 E25.90821
G1 X81.68 Y84.373 E25.9394
G1 X82.382 Y83.588 E25.97443
G1 X82.564 Y83.403 E25.98306
G1 X83.249 Y82.763 E26.01424
G1 X83.987 Y82.184 E26.04544
G1 X84.444 Y81.872 E26.06384
G1 X84.672 Y81.725 E26.07286
G1 X85.482 Y81.251 E26.10408
G1 X86.328 Y80.847 E26.13526
G1 X86.957 Y80.602 E26.15771
G1 X87.208 Y80.513 E26.16657
G1 X88.104 Y80.238 E26.19774
G1 X89.021 Y80.04 E26.22895
G1 X89.52 Y79.966 E26.24572
G1 X89.768 Y79.935 E26.25404
G1 X90.96 Y79.851 E26.29378
G1 X91.901 Y79.838 E26.32508
G1 X143.292 Y79.838 E28.03435
G1 X143.989 Y79.848 E28.05754
G1 F1500 E21.55754
;MESH:nano-case-test.obj
G0 F6000 X145.705 Y91.998
G0 X145.667 Y115.227
G0 X145.554 Y115.551
G0 X143.814 Y118.334
G0 X143.814 Y119.419
G0 X91.119 Y119.787
G0 X90.884 Y119.935
G0 X90.788 Y120.25
G0 X90.804 Y143.059
G0 X91.083 Y143.543
;TYPE:WALL-INNER
G1 F1500 E28.05754
G1 F1200 X90.959 Y143.5 E28.0619
G1 X90.847 Y143.431 E28.06628
G1 X90.753 Y143.337 E28.0707
G1 X90.682 Y143.223 E28.07517
G1 X90.636 Y143.096 E28.07966
G1 X90.618 Y142.934 E28.08508
G1 X90.617 Y120.238 E28.83995
G1 X90.636 Y120.065 E28.84574
G1 X90.679 Y119.941 E28.85011
G1 X90.747 Y119.831 E28.85441
G1 X90.845 Y119.733 E28.85902
G1 X90.951 Y119.666 E28.86319
G1 X91.081 Y119.62 E28.86778
G1 X91.289 Y119.599 E28.87473
G1 X143.802 Y119.599 E30.62132
G1 X143.972 Y119.618 E30.62701
G1 X144.097 Y119.662 E30.63141
G1 X144.212 Y119.733 E30.63591
G1 X144.307 Y119.827 E30.64036
G1 X144.376 Y119.936 E30.64465
G1 X144.422 Y120.067 E30.64926
G1 X144.441 Y120.229 E30.65469
G1 X144.442 Y142.923 E31.40949
G1 X144.423 Y143.093 E31.41518
G1 X144.379 Y143.218 E31.41959
G1 X144.308 Y143.333 E31.42409
G1 X144.216 Y143.426 E31.42844
G1 X144.101 Y143.498 E31.43295
G1 X143.979 Y143.541 E31.43725
G1 X143.807 Y143.562 E31.44302
G1 X91.292 Y143.563 E33.18967
G1 X91.083 Y143.543 E33.19665
G0 F6000 X90.996 Y143.936
;TYPE:WALL-OUTER
G1 F1200 X90.788 Y143.865 E33.20397
G1 X90.596 Y143.745 E33.2115
G1 X90.438 Y143.588 E33.2189
G1 X90.32 Y143.4 E33.22629
G1 X90.245 Y143.189 E33.23373
G1 X90.218 Y142.953 E33.24164
G1 X90.217 Y120.212 E33.998
G1 X90.243 Y119.978 E34.00583
G1 X90.314 Y119.77 E34.01314
G1 X90.433 Y119.579 E34.02063
G1 X90.591 Y119.421 E34.02806
G1 X90.778 Y119.303 E34.03542
G1 X90.992 Y119.227 E34.04297
G1 X91.269 Y119.199 E34.05223
G1 X143.829 Y119.199 E35.80038
G1 X144.061 Y119.225 E35.80815
G1 X144.27 Y119.298 E35.81551
G1 X144.462 Y119.417 E35.82302
G1 X144.62 Y119.574 E35.83043
G1 X144.738 Y119.76 E35.83776
G1 X144.814 Y119.974 E35.84531
G1 X144.841 Y120.209 E35.85318
G1 X144.842 Y142.95 E36.60955
G1 X144.816 Y143.182 E36.61731
G1 X144.743 Y143.391 E36.62467
G1 X144.624 Y143.583 E36.63219
G1 X144.467 Y143.741 E36.6396
G1 X144.279 Y143.859 E36.64698
G1 X144.068 Y143.933 E36.65442
G1 X143.83 Y143.962 E36.66239
G1 X91.274 Y143.963 E38.41041
G1 X90.996 Y143.936 E38.4197
G0 F6000 X91.089 Y143.506
G0 X91.168 Y143.159
;TYPE:SKIN
G1 F1200 X91.126 Y143.145 E38.42117
G1 X91.087 Y143.121 E38.42269
G1 X91.062 Y143.096 E38.42387
G1 X91.033 Y143.049 E38.42571
G1 X91.019 Y143.01 E38.42709
G1 X91.008 Y142.91 E38.43043
G1 X91.007 Y120.263 E39.18367
G1 X91.02 Y120.15 E39.18746
G1 X91.034 Y120.108 E39.18893
G1 X91.057 Y120.071 E39.19038
G1 X91.087 Y120.041 E39.19179
G1 X91.12 Y120.02 E39.19309
G1 X91.169 Y120.003 E39.19482
G1 X91.308 Y119.989 E39.19946
G1 X143.777 Y119.989 E40.94459
G1 X143.886 Y120.001 E40.94824
G1 X143.969 Y120.04 E40.95129
G1 X144 Y120.072 E40.95277
G1 X144.022 Y120.106 E40.95411
G1 X144.039 Y120.155 E40.95584
G1 X144.051 Y120.256 E40.95922
G1 X144.052 Y142.898 E41.7123
G1 X144.04 Y143.007 E41.71595
G1 X144.026 Y143.048 E41.71739
G1 X144 Y143.091 E41.71906
G1 X143.974 Y143.117 E41.72028
G1 X143.929 Y143.146 E41.72206
G1 X143.893 Y143.158 E41.72332
G1 X143.777 Y143.172 E41.72721
G1 X91.309 Y143.173 E43.4723
G1 X91.168 Y143.159 E43.47702
G0 F6000 X91.167 Y142.644
G1 F1200 X91.534 Y143.011 E43.49428
G0 F6000 X92.099 Y143.011
G1 F1200 X91.167 Y142.078 E43.53814
G0 F6000 X91.167 Y141.513
G1 F1200 X92.665 Y143.011 E43.6086
G0 F6000 X93.231 Y143.011
G1 F1200 X91.167 Y140.947 E43.70569
G0 F6000 X91.167 Y140.381
G1 F1200 X93.797 Y143.011 E43.82939
G0 F6000 X94.362 Y143.011
G1 F1200 X91.167 Y139.816 E43.97968
G0 F6000 X91.167 Y139.25
G1 F1200 X94.928 Y143.011 E44.15658
G0 F6000 X95.494 Y143.011
G1 F1200 X91.167 Y138.684 E44.36011
G0 F6000 X91.167 Y138.119
G1 F1200 X96.059 Y143.011 E44.59022
G0 F6000 X96.625 Y143.011
G1 F1200 X91.167 Y137.553 E44.84694
G0 F6000 X91.167 Y136.987
G1 F1200 X97.191 Y143.011 E45.13029
G0 F6000 X97.756 Y143.011
G1 F1200 X91.167 Y136.422 E45.44022
G0 F6000 X91.167 Y135.856
G1 F1200 X98.322 Y143.011 E45.77677
G0 F6000 X98.888 Y143.011
G1 F1200 X91.167 Y135.29 E46.13994
G0 F6000 X91.167 Y134.725
